!!!SOCIAL_FUNCTION:	songs of war
!!!PDT:	1918

Specific Region: Dakotas, Minnesota, Montana, Nebraska
!!!REG: Dakotas and Montana
!!!LING_GROUP: Siouan
!!!LANG: Tone
!!!OTL@ENG: She Stands There Smiling
!!!ONM: No. 144
**kern
*Imale
*clefF4
*k[b-]
*M2/4
*MM69
12c
12c
12c
=1
12f
12f
12f
8f
8c
=2||
*M3/4
4c
4A
8c
8c
=3
4c
4A
8A
8A
=4
4A
4F
8A
8A
=5||
*M2/4
4c
4A
=6
8G
8A
8A
8G
=7||
*M3/4
8F
8F
4.F
8F
=8
2F
4r
=9||
*M2/4
8A
8c
8c
8c
=10||
*M3/4
8c
8f
8f
8f
8f
8c
=11
4c
4A
8c
8c
=12
4c
4A
4A
=13
4A
4F
8A
8A
=14||
*M2/4
8c
8c
4A
=15
8G
8A
16.A
32A
8G
=16||
*M3/4
8F
8F
2F
=17
4F
2r
==
*-
!!!CNT: Native American -- Sioux
!!!MRD: 1911/07//-1914///
!!!OCL: Frances Densmore
!!!YOR1: Teton Sioux Music, Bulletin 61,
!!!YOR2: Bureau of American Ethnology, Smithsonian Institution
!!!PPR: Government Printing Office
!!!PPP: Washington, D.C.
!!!PDT: 1918///
!!!ENC: Craig Stuart Sapp
!!!END: 2002/03/25/
!!!EEV: 2002/03/31/
!!!AGN: War Song/Song of a Typical War Expedition
!!!MPN@@SIO: Shung'ka-wangbli'
!!!MPN@ENG: Dog Eagle
!!!TXO: Teton Sioux
!!!MLC: Standing Rock Reservation, South Dakota, United States of America
!!!ARL: 45.9/-100.7#
!!!catalog: Catalogue No. 658
!!!PPG: 361
!!!EFL: 148/245
!!!VTS: 462426588
